img/svg_icons/date-fill.svg

<svg width="16" height="16" viewBox="0 0 16 16" fill="none" xmlns="http://www.w3.org/2000/svg">
<path d="M1.33331 6.00004C1.33331 5.38006 1.33331 5.07007 1.40146 4.81574C1.5864 4.12555 2.12549 3.58646 2.81567 3.40152C3.07001 3.33337 3.38 3.33337 3.99998 3.33337H12C12.62 3.33337 12.93 3.33337 13.1843 3.40152C13.8745 3.58646 14.4136 4.12555 14.5985 4.81574C14.6666 5.07007 14.6666 5.38006 14.6666 6.00004C14.6666 6.15504 14.6666 6.23253 14.6496 6.29612C14.6034 6.46866 14.4686 6.60344 14.2961 6.64967C14.2325 6.66671 14.155 6.66671 14 6.66671H1.99998C1.84498 6.66671 1.76749 6.66671 1.7039 6.64967C1.53136 6.60344 1.39658 6.46866 1.35035 6.29612C1.33331 6.23253 1.33331 6.15504 1.33331 6.00004Z" fill="white"/>
<path d="M1.33331 10.6666C1.33331 12.5522 1.33331 13.4951 1.9191 14.0808C2.50489 14.6666 3.44769 14.6666 5.33331 14.6666H10.6666C12.5523 14.6666 13.4951 14.6666 14.0809 14.0808C14.6666 13.4951 14.6666 12.5522 14.6666 10.6666V8.99996C14.6666 8.52855 14.6666 8.29285 14.5202 8.14641C14.3738 7.99996 14.1381 7.99996 13.6666 7.99996H2.33331C1.86191 7.99996 1.62621 7.99996 1.47976 8.14641C1.33331 8.29285 1.33331 8.52856 1.33331 8.99996V10.6666Z" fill="white"/>
<path d="M4.66669 2L4.66669 4" stroke="white" stroke-width="2" stroke-linecap="round"/>
<path d="M11.3333 2L11.3333 4" stroke="white" stroke-width="2" stroke-linecap="round"/>
</svg>

<svg width="16" height="16" fill="none" xmlns="http://www.w3.org/2000/svg"><path d="M1.333 6c0-.62 0-.93.068-1.184a2 2 0 011.415-1.414c.254-.069.564-.069 1.184-.069h8c.62 0 .93 0 1.184.069A2 2 0 0114.6 4.816c.068.254.068.564.068 1.184 0 .155 0 .233-.017.296a.5.5 0 01-.354.354c-.063.017-.141.017-.296.017H2c-.155 0-.233 0-.296-.017a.5.5 0 01-.354-.354c-.017-.063-.017-.141-.017-.296zm0 4.667c0 1.885 0 2.828.586 3.414.586.586 1.529.586 3.414.586h5.334c1.885 0 2.828 0 3.414-.586.586-.586.586-1.529.586-3.414V9c0-.471 0-.707-.147-.854C14.374 8 14.138 8 13.667 8H2.333c-.471 0-.707 0-.853.146-.147.147-.147.383-.147.854v1.667z" fill="#fff"/><path d="M4.667 2v2m6.666-2v2" stroke="#fff" stroke-width="2" stroke-linecap="round"/></svg>
